X: 3236
T: Beheaded Doll, The
R: jig
M: 6/8
K: Dmajor
DEF ABA|FED B,2B|AFE ~E3|AFE ~E3|
DEF ABA|FED B,2B|Adf efe|1 d3 d3:|2 d3 d2e||
|:faa afe|faa b2a|e3 ede|~f3 ede|
f2a afe|faa b2a|fed BAF|1 AFE Dde:|2 AFE D3||

